src/icons/setup-api.svg

<svg enable-background="new 0 0 29 23" viewBox="0 0 29 23" xmlns="http://www.w3.org/2000/svg"><g><path d="m24.2 3.4h-9.7v.1 2.7c0 1.8-1 3.3-2.4 4.2-.4 2.3-2.6 4.1-4.9 4.1h-2.6v4.4c0 2.2 1.8 4 4 4h15.6c2.2 0 4-1.8 4-4v-11.5c0-2.2-1.8-4-4-4z" fill="#25a6f7"/><path d="m23.8 21.6h-14.7c-1.6 0-3-1.4-3-3v-10.9c0-1.6 1.3-3 3-3h14.7c1.6 0 3 1.4 3 3v10.9c0 1.6-1.4 3-3 3z" fill="#fff"/><g fill="#25a6f7"><path d="m9.5 0-.1.8c-.3.1-.6.3-.9.5l-.8-.3-.7 1.4.7.5c0 .2-.1.3-.1.5s0 .3.1.5l-.7.5.8 1.4.8-.3c.3.2.6.4.9.5l.1.8h1.6l.1-.8c.3-.1.6-.3.9-.5l.8.3.8-1.4-.7-.5c0-.2.1-.3.1-.5s0-.3-.1-.5l.7-.5-1-1.4-.8.3c-.3-.2-.6-.4-.9-.5v-.8zm.8 2.2c.7 0 1.2.5 1.2 1.2s-.5 1.2-1.2 1.2-1.2-.6-1.2-1.2c0-.7.5-1.2 1.2-1.2zm-6.9 2.5-.1 1.2c-.6.1-1.1.4-1.5.8l-1-.5-.8 1.4.9.7c0 .3-.1.5-.1.8s0 .6.1.8l-.9.7.8 1.4 1.1-.5c.4.4.9.7 1.4.8l.1 1.2h1.6l.1-1.2c.5-.2 1-.4 1.4-.8l1.1.5.8-1.4-.9-.7c.1-.3.1-.5.1-.8s0-.6-.1-.8l.9-.7-.8-1.4-1.1.5c-.4-.4-.8-.7-1.4-.8l-.1-1.2zm.8 3.1c.7 0 1.3.6 1.3 1.4 0 .7-.6 1.3-1.3 1.3s-1.4-.6-1.4-1.4c0-.7.6-1.3 1.4-1.3z"/><path d="m13.8 16.3c.1.1.3.1.4 0s.2-.2.2-.3v-.1-.1l-1.7-5.5c-.1-.2-.2-.3-.4-.3s-.3.1-.3.3l-1.7 5.5v.1.1c0 .1.1.3.2.3.1.1.3.1.4 0s.2-.2.2-.3v-.1l.3-1.1h2l.3 1.1v.1c-.1.1 0 .2.1.3zm-2.3-2.2.8-2.5.8 2.5z"/><path d="m20.1 15.6c-.2 0-.4.2-.3.4 0 .2.2.4.4.3h1.1c.1 0 .3-.1.3-.2.1-.1.1-.3 0-.4s-.2-.2-.3-.2h-.2v-4.9h.2c.1 0 .3-.1.3-.2.1-.1.1-.3 0-.4s-.2-.2-.3-.2h-.5-.1-.5c-.2 0-.4.2-.4.4s.2.4.4.4h.2v4.9h-.3z"/><path d="m16 16.3c.1-.1.2-.2.2-.3v-1.9h1.1c.8 0 1.5-.7 1.5-1.5v-1.1c0-.8-.7-1.5-1.5-1.5h-1.6c-.2 0-.3.2-.3.4v3.3.2 2.1c0 .1.1.3.2.3.2.1.3.1.4 0zm.2-5.6h1.1c.4 0 .8.3.8.8v1.1c0 .4-.3.8-.8.8h-1.1z"/></g></g></svg>

<?xml version="1.0" encoding="utf-8"?>
<!-- Generator: Adobe Illustrator 20.1.0, SVG Export Plug-In . SVG Version: 6.00 Build 0)  -->
<svg version="1.1" id="Layer_1" xmlns="http://www.w3.org/2000/svg" xmlns:xlink="http://www.w3.org/1999/xlink" x="0px" y="0px"
	 viewBox="0 0 29 23" style="enable-background:new 0 0 29 23;" xml:space="preserve">
<style type="text/css">
	.st0{fill:#25A6F7;}
	.st1{fill:#FFFFFF;}
</style>
<title>HDL/Icon/Standard/Setup/api</title>
<desc>Created with Sketch.</desc>
<g id="Colors">
	<g id="Setup-Icons" transform="translate(-116.000000, -196.000000)">
		<g id="HDL_x2F_Icon_x2F_Standard_x2F_Setup_x2F_api" transform="translate(116.000000, 196.000000)">
			<g id="API">
				<path id="Path" class="st0" d="M24.2,3.4h-9.7v0.1v2.7c0,1.8-1,3.3-2.4,4.2c-0.4,2.3-2.6,4.1-4.9,4.1H4.6v4.4c0,2.2,1.8,4,4,4
					h15.6c2.2,0,4-1.8,4-4V7.4C28.2,5.2,26.4,3.4,24.2,3.4z"/>
				<path id="Path_1_" class="st1" d="M23.8,21.6H9.1c-1.6,0-3-1.4-3-3V7.7c0-1.6,1.3-3,3-3h14.7c1.6,0,3,1.4,3,3v10.9
					C26.8,20.2,25.4,21.6,23.8,21.6z"/>
				<path id="Shape" class="st0" d="M9.5,0L9.4,0.8C9.1,0.9,8.8,1.1,8.5,1.3L7.7,1L7,2.4l0.7,0.5c0,0.2-0.1,0.3-0.1,0.5
					c0,0.2,0,0.3,0.1,0.5L7,4.4l0.8,1.4l0.8-0.3C8.9,5.7,9.2,5.9,9.5,6l0.1,0.8h1.6L11.3,6c0.3-0.1,0.6-0.3,0.9-0.5L13,5.8l0.8-1.4
					l-0.7-0.5c0-0.2,0.1-0.3,0.1-0.5c0-0.2,0-0.3-0.1-0.5l0.7-0.5l-1-1.4L12,1.3c-0.3-0.2-0.6-0.4-0.9-0.5V0H9.5z M10.3,2.2
					c0.7,0,1.2,0.5,1.2,1.2S11,4.6,10.3,4.6S9.1,4,9.1,3.4C9.1,2.7,9.6,2.2,10.3,2.2z M3.4,4.7L3.3,5.9C2.7,6,2.2,6.3,1.8,6.7
					l-1-0.5L0,7.6l0.9,0.7c0,0.3-0.1,0.5-0.1,0.8c0,0.3,0,0.6,0.1,0.8L0,10.6L0.8,12l1.1-0.5c0.4,0.4,0.9,0.7,1.4,0.8l0.1,1.2H5
					l0.1-1.2c0.5-0.2,1-0.4,1.4-0.8L7.6,12l0.8-1.4L7.5,9.9c0.1-0.3,0.1-0.5,0.1-0.8c0-0.3,0-0.6-0.1-0.8l0.9-0.7L7.6,6.2L6.5,6.7
					C6.1,6.3,5.7,6,5.1,5.9L5,4.7H3.4z M4.2,7.8c0.7,0,1.3,0.6,1.3,1.4c0,0.7-0.6,1.3-1.3,1.3S2.8,9.9,2.8,9.1
					C2.8,8.4,3.4,7.8,4.2,7.8z"/>
				<path id="Shape_1_" class="st0" d="M13.8,16.3c0.1,0.1,0.3,0.1,0.4,0c0.1-0.1,0.2-0.2,0.2-0.3v-0.1v-0.1l-1.7-5.5
					c-0.1-0.2-0.2-0.3-0.4-0.3S12,10.1,12,10.3l-1.7,5.5v0.1V16c0,0.1,0.1,0.3,0.2,0.3c0.1,0.1,0.3,0.1,0.4,0
					c0.1-0.1,0.2-0.2,0.2-0.3v-0.1l0.3-1.1h2l0.3,1.1V16C13.6,16.1,13.7,16.2,13.8,16.3z M11.5,14.1l0.8-2.5l0.8,2.5H11.5z"/>
				<path id="Path_2_" class="st0" d="M20.1,15.6c-0.2,0-0.4,0.2-0.3,0.4c0,0.2,0.2,0.4,0.4,0.3h1.1c0.1,0,0.3-0.1,0.3-0.2
					c0.1-0.1,0.1-0.3,0-0.4c-0.1-0.1-0.2-0.2-0.3-0.2h-0.2v-4.9h0.2c0.1,0,0.3-0.1,0.3-0.2c0.1-0.1,0.1-0.3,0-0.4s-0.2-0.2-0.3-0.2
					h-0.5h-0.1l0,0h-0.5c-0.2,0-0.4,0.2-0.4,0.4s0.2,0.4,0.4,0.4h0.2v4.9h-0.3V15.6z"/>
				<path id="Shape_2_" class="st0" d="M16,16.3c0.1-0.1,0.2-0.2,0.2-0.3v-1.9h1.1c0.8,0,1.5-0.7,1.5-1.5v-1.1
					c0-0.8-0.7-1.5-1.5-1.5h-1.6c-0.2,0-0.3,0.2-0.3,0.4v3.3c0,0,0,0.1,0,0.2V16c0,0.1,0.1,0.3,0.2,0.3C15.8,16.4,15.9,16.4,16,16.3
					z M16.2,10.7h1.1c0.4,0,0.8,0.3,0.8,0.8v1.1c0,0.4-0.3,0.8-0.8,0.8h-1.1V10.7z"/>
			</g>
		</g>
	</g>
</g>
</svg>
